X:5014
T:Go On, Donkey
M:6/8
L:1/8
Q:180
C:Aidan Crossey
R:Jig
K:A
|:d2e fdB|c2d ecA|B2c dcB|c2d ece|
d2e fdB|c2d ecA|B2c dcB|cBA ABA:||
|:fed def|edc cde|dcB Bcd|cBc cde|
fed def|edc cde|dcB BcB|ABA A3:||
